X:1
T:Title
%%score { 1 | ( 2 3 ) }
L:1/8
M:6/8
K:Eb
V:1 treble nm="Grand Piano"
V:2 bass 
V:3 bass 
V:1
 z3 z2[Q:1/4=90] B | [GB]>AG [GB]AG | [GB]A=E [DF]2 A | [Ac]>=Bc d2 c/d/ | [Gc]Gc B2 [F=B] | %5
 [Ec]>G[GB] [FA]>GA |[M:5/8] [Ad]c[Ad] [Ge]2 |[M:1/8] [Fc] |[M:3/4] [GB]>G [_Gc][=GB] GE | %9
 [B,EG]2 [DF][K:bass] [E,G,B,E]3 | C>C DE[K:treble] BE | D2 _D =D3 | B,>D E[DF] [EG][DFA] | %13
 [EGc][B,EG] [Gc] [GB]2 [F=B] | [=Ec][EG] [GB]A- A/G/A | [Ad][Ac] [FAd] [EGe]2 [E_Gc] | %16
 [EGB][B,EG] [E_Gc][E=GB] [B,EG][=A,E] |[M:5/8] [B,EG]2 [A,DF] [G,B,E]2 |] %18
V:2
 z3 z2 G | z z/[K:treble] F/E z FE | z[K:treble] F_D z2 F | z z/[K:treble] A/A [B,A]2 A/A/ | %4
 z E[K:treble]A G2[K:bass] D, | z z/ E/=E, z z/[K:treble] =E/F |[M:5/8][K:bass] z A=B,, C,2 | %7
[M:1/8] =A,, |[M:3/4] z z/ E/ .=A,,2 EC, | z2 A, E,,3 | %10
 [E,G,]>[E,G,B,] [E,G,B,][E,G,B,] [E,G,B,][E,G,B,] | [F,A,B,]2 [=E,G,B,] [F,A,B,]3 | %12
 [B,,A,]>[B,,F,B,] [B,,G,B,][B,,B,] [B,,B,]B,, | E,E, [E,E] [E,E]2 [D,G,] | %14
 [C,G,][C,C] [=E,C][F,CF]- [F,CF]/[F,C=E]/[F,CF] | [B,,B,][B,,B,] B,, C,2 =A,, | %16
 B,,B,, =A,,B,, B,,C, |[M:5/8] B,,2 B,, E,2 |] %18
V:3
 x6 | E,,3[K:treble] E,3 | B,,3[K:treble] B,3 | B,,3[K:treble] z3 | E,6[K:treble][K:bass] | %5
 .C,3 F,3[K:treble] |[M:5/8][K:bass] B,,2 z z2 |[M:1/8] x |[M:3/4] B,,2 z .B,,3 | B,,4 z2 | x6 | %11
 x6 | x6 | x6 | x6 | x6 | x6 |[M:5/8] x5 |] %18

